resources/haticons/SVG/vertical_split.svg

<!-- Generated by IcoMoon.io -->
<svg version="1.1" xmlns="http://www.w3.org/2000/svg" width="24" height="24" viewBox="0 0 24 24">
<title>vertical_split</title>
<path d="M12.984 5.016h8.016v13.969h-8.016v-13.969zM3 5.016h8.016v1.969h-8.016v-1.969zM3 11.016v-2.016h8.016v2.016h-8.016zM3 18.984v-1.969h8.016v1.969h-8.016zM3 15v-2.016h8.016v2.016h-8.016z"></path>
</svg>

<svg xmlns="http://www.w3.org/2000/svg" width="24" height="24"><path d="M12.984 5.016H21v13.969h-8.016V5.016zM3 5.016h8.016v1.969H3V5.016zm0 6V9h8.016v2.016H3zm0 7.968v-1.969h8.016v1.969H3zM3 15v-2.016h8.016V15H3z"/></svg>
